X: 1
T: Gow's Quickstep
T: the Rev. John MacFarlane
C: Niel Gow
%R: reel, quickstep, polks
Z: 2015 John Chambers <jc:trillian.mit.edu>
S: handwritten copy from Angus Grant, at the Boston Harbor Scottish Fiddle School, Aug 2003
M: C|
L: 1/8
K: D
A2 |\
"D"dcde d2A2 | "D"dcde d2A2 | "G"B2(ef) gfed | "A"f2e2 e2(fe) |\
"D"dcde d2A2 | "D"dcde d2A2 | "G"B3A "A"G3F | "D"A2D2 D2 :|
(fg) |\
"D"a3b a2f2 | "D"d3e d2A2 | "G"B2(ef) gfed | "A"f2e2 e2(fg) |\
"D"a3b a2f2 | "D"d3e d2A2 | "G"B3A "A"G3F | "D"A2D2 D2 ||
(fg) |\
"D"a3b a2f2 | "D"d3e d2A2 | "G"B2(ef) gfed | "A"f2e2 e2(fe) |\
"D"dcde d2A2 | "D"dcdA d2A2 | "G"B3A "A"G3F | "D"A2D2 D2 |]
